;FLAVOR:Marlin
;TIME:7613
;Filament used: 6.97083m
;Layer height: 0.2
;MINX:62
;MINY:64
;MINZ:0.2
;MAXX:158
;MAXY:156
;MAXZ:26
;Generated with Cura_SteamEngine 5.0.0
M82 ;absolute extrusion mode
; Jason's Custom Ender 5 Pro Start Code
; Default gcode from Cura 5.0
M201 X500.00 Y500.00 Z100.00 E5000.00 ;Setup machine max acceleration
M203 X500.00 Y500.00 Z10.00 E50.00 ;Setup machine max feedrate
M204 P500.00 R1000.00 T500.00 ;Setup Print/Retract/Travel acceleration
M205 X8.00 Y8.00 Z0.40 E5.00 ;Setup Jerk
M220 S100 ;Reset Feedrate to 100%
M221 S100 ;Reset Flowrate to 100%

; Heat the bed and extruder at the same time
M140 S50 ; Set Bed temperature
M104 S170 ; Set Extruder temperature, let it heat up w/o causing oozing
G28 ; Home all axes
G1 Z2.0 F3000 ; Move extruder off the build plate; who would leave it there
M117 Heating
M190 S50 ; Wait for Heat Bed temperature
M109 S205.0 ; Wait for Extruder temperature

M300 S1000 P500 ; chirp once

; Purge extruder
M117 Purging Extruder
G92 E0 ; Reset Extruder
G1 F200 E10 ; Extrude 10mm of feed stock @200mm/min
G92 E0 ; Reset Extruder

; Slowly draw 2 lines
G1 Z2.0 F3000 ; Move Z Axis up little to prevent scratching of Heat Bed. 
G1 X0.1 Y20 Z0.28 F5000.0 ; Move to start position
G1 X0.1 Y200.0 Z0.28 F1500.0 E15 ; Draw the first line
G1 X0.4 Y200.0 Z0.28 F5000.0 ; Move to side a little
G1 X0.4 Y20 Z0.28 F1500.0 E30 ; Draw the second line

G92 E0 ; Reset Extruder
G1 Z2.0 F3000 ; Move Z Axis up
;G1 X2 F1500.0 ;move to side to prevent hitting the purgeline

M300 S1000 P500 ; chirp once
M117 Printing!

G92 E0
G92 E0
G1 F2700 E-5
;LAYER_COUNT:130
;LAYER:0
M107
G0 F6000 X65.198 Y67.264 Z0.2
G0 X62.001 Y75.525
;TYPE:SKIRT
G1 F2700 E0
G1 F1200 X62.01 Y74.86 E0.02212
G1 X62.063 Y73.924 E0.0533
G1 X62.195 Y72.995 E0.08451
G1 X62.406 Y72.081 E0.11571
G1 X62.694 Y71.189 E0.14689
G1 X63.057 Y70.324 E0.17809
G1 X63.492 Y69.493 E0.20928
G1 X63.996 Y68.703 E0.24045
G1 X64.566 Y67.958 E0.27165
G1 X65.198 Y67.264 E0.30287
G1 X65.886 Y66.627 E0.33405
G1 X66.626 Y66.051 E0.36524
G1 X67.412 Y65.539 E0.39644
G1 X68.239 Y65.097 E0.42763
G1 X69.101 Y64.727 E0.45883
G1 X69.991 Y64.431 E0.49003
G1 X70.903 Y64.213 E0.52122
G1 X71.83 Y64.072 E0.5524
G1 X72.701 Y64.013 E0.58144
G1 X73.33 Y64 E0.60236
G1 X146.293 Y64 E3.02912
G1 X147.149 Y64.011 E3.0576
G1 X148.085 Y64.065 E3.08878
G1 X149.013 Y64.197 E3.11996
G1 X149.927 Y64.409 E3.15116
G1 X150.819 Y64.698 E3.18235
G1 X151.684 Y65.061 E3.21355
G1 X152.514 Y65.497 E3.24473
G1 X153.305 Y66.002 E3.27595
G1 X154.049 Y66.573 E3.30714
G1 X154.742 Y67.205 E3.33833
G1 X155.379 Y67.893 E3.36952
G1 X155.954 Y68.634 E3.40071
G1 X156.465 Y69.42 E3.4319
G1 X156.907 Y70.248 E3.46311
G1 X157.276 Y71.11 E3.4943
G1 X157.571 Y72 E3.52549
G1 X157.789 Y72.912 E3.55667
G1 X157.929 Y73.84 E3.58789
G1 X157.987 Y74.701 E3.61659
G1 X158 Y75.33 E3.63751
G1 X157.999 Y144.4 E5.93479
G1 X157.99 Y145.127 E5.95897
G1 X157.939 Y146.064 E5.99018
G1 X157.807 Y146.992 E6.02136
G1 X157.598 Y147.906 E6.05255
G1 X157.311 Y148.799 E6.08374
G1 X156.949 Y149.665 E6.11496
G1 X156.515 Y150.496 E6.14614
G1 X156.011 Y151.287 E6.17734
G1 X155.442 Y152.032 E6.20852
G1 X154.811 Y152.727 E6.23974
G1 X154.124 Y153.365 E6.27092
G1 X153.385 Y153.942 E6.30211
G1 X152.599 Y154.454 E6.33331
G1 X151.773 Y154.897 E6.36448
G1 X150.911 Y155.269 E6.39571
G1 X150.022 Y155.565 E6.42687
G1 X149.11 Y155.785 E6.45807
G1 X148.183 Y155.926 E6.48926
G1 X147.299 Y155.987 E6.51873
G1 X146.67 Y156 E6.53966
G1 X73.565 Y155.999 E8.97114
G1 X72.867 Y155.99 E8.99436
G1 X71.931 Y155.938 E9.02554
G1 X71.002 Y155.806 E9.05675
G1 X70.088 Y155.596 E9.08794
G1 X69.195 Y155.309 E9.11914
G1 X68.33 Y154.946 E9.15034
G1 X67.499 Y154.512 E9.18152
G1 X66.708 Y154.008 E9.21271
G1 X65.963 Y153.438 E9.24391
G1 X65.269 Y152.807 E9.27511
G1 X64.632 Y152.12 E9.30627
G1 X64.055 Y151.38 E9.33748
G1 X63.543 Y150.594 E9.36868
G1 X63.1 Y149.767 E9.39988
G1 X62.729 Y148.906 E9.43107
G1 X62.433 Y148.016 E9.46226
G1 X62.214 Y147.104 E9.49346
G1 X62.073 Y146.177 E9.52464
G1 X62.013 Y145.288 E9.55428
G1 X62 Y144.658 E9.57524
G1 X62.001 Y75.525 E11.87461
G0 F6000 X62.401 Y75.531
G1 F1200 X62.41 Y74.866 E11.89673
G1 X62.462 Y73.946 E11.92738
G1 X62.594 Y73.035 E11.958
G1 X62.805 Y72.139 E11.98861
G1 X63.092 Y71.264 E12.01924
G1 X63.455 Y70.418 E12.04986
G1 X63.889 Y69.606 E12.08048
G1 X64.392 Y68.835 E12.1111
G1 X64.961 Y68.111 E12.14173
G1 X65.589 Y67.439 E12.17232
G1 X66.274 Y66.823 E12.20296
G1 X67.01 Y66.27 E12.23358
G1 X67.791 Y65.782 E12.26421
G1 X68.611 Y65.364 E12.29482
G1 X69.465 Y65.019 E12.32546
G1 X70.345 Y64.749 E12.35607
G1 X71.245 Y64.557 E12.38668
G1 X72.159 Y64.443 E12.41731
G1 X72.712 Y64.413 E12.43573
G1 X73.33 Y64.4 E12.45629
G1 X146.293 Y64.4 E14.88305
G1 X147.143 Y64.411 E14.91133
G1 X148.062 Y64.464 E14.94194
G1 X148.973 Y64.597 E14.97256
G1 X149.869 Y64.808 E15.00318
G1 X150.743 Y65.096 E15.03379
G1 X151.59 Y65.459 E15.06444
G1 X152.401 Y65.894 E15.09505
G1 X153.171 Y66.398 E15.12566
G1 X153.895 Y66.967 E15.15628
G1 X154.567 Y67.597 E15.18692
G1 X155.182 Y68.282 E15.21754
G1 X155.735 Y69.018 E15.24816
G1 X156.222 Y69.799 E15.27877
G1 X156.639 Y70.62 E15.3094
G1 X156.984 Y71.474 E15.34003
G1 X157.253 Y72.354 E15.37064
G1 X157.445 Y73.255 E15.40128
G1 X157.558 Y74.168 E15.43188
G1 X157.596 Y75.032 E15.46064
G1 X157.599 Y144.395 E17.76766
G1 X157.59 Y145.122 E17.79184
G1 X157.539 Y146.041 E17.82246
G1 X157.408 Y146.953 E17.8531
G1 X157.198 Y147.849 E17.88371
G1 X156.912 Y148.724 E17.91433
G1 X156.551 Y149.571 E17.94495
G1 X156.117 Y150.383 E17.97557
G1 X155.615 Y151.155 E18.0062
G1 X155.047 Y151.88 E18.03684
G1 X154.419 Y152.553 E18.06745
G1 X153.735 Y153.169 E18.09807
G1 X153 Y153.723 E18.12868
G1 X152.22 Y154.212 E18.1593
G1 X151.4 Y154.631 E18.18993
G1 X150.547 Y154.977 E18.22054
G1 X149.667 Y155.248 E18.25117
G1 X148.767 Y155.441 E18.28178
G1 X147.853 Y155.556 E18.31242
G1 X147.288 Y155.587 E18.33124
G1 X146.67 Y155.6 E18.3518
G1 X73.57 Y155.599 E20.78312
G1 X72.872 Y155.59 E20.80634
G1 X71.953 Y155.538 E20.83695
G1 X71.042 Y155.407 E20.86756
G1 X70.146 Y155.197 E20.89817
G1 X69.271 Y154.91 E20.9288
G1 X68.424 Y154.548 E20.95944
G1 X67.612 Y154.114 E20.99006
G1 X66.841 Y153.612 E21.02066
G1 X66.116 Y153.044 E21.05129
G1 X65.443 Y152.415 E21.08193
G1 X64.828 Y151.731 E21.11252
G1 X64.274 Y150.996 E21.14314
G1 X63.786 Y150.215 E21.17377
G1 X63.367 Y149.395 E21.20439
G1 X63.021 Y148.542 E21.23501
G1 X62.751 Y147.662 E21.26562
G1 X62.558 Y146.761 E21.29627
G1 X62.444 Y145.848 E21.32687
G1 X62.413 Y145.277 E21.34589
G1 X62.4 Y144.658 E21.36649
G1 X62.401 Y75.531 E23.66566
G0 F6000 X62.801 Y75.536
G1 F1200 X62.81 Y74.871 E23.68778
G1 X62.862 Y73.969 E23.71783
G1 X62.994 Y73.076 E23.74785
G1 X63.204 Y72.198 E23.77788
G1 X63.491 Y71.341 E23.80794
G1 X63.853 Y70.514 E23.83797
G1 X64.286 Y69.722 E23.86799
G1 X64.788 Y68.971 E23.89803
G1 X65.355 Y68.267 E23.9281
G1 X65.981 Y67.617 E23.95811
G1 X66.662 Y67.024 E23.98815
G1 X67.394 Y66.494 E24.0182
G1 X68.169 Y66.031 E24.04823
G1 X68.982 Y65.638 E24.07827
G1 X69.827 Y65.318 E24.10832
G1 X70.696 Y65.075 E24.13833
G1 X71.584 Y64.909 E24.16838
G1 X72.723 Y64.813 E24.20639
G1 X73.33 Y64.8 E24.22659
G1 X146.293 Y64.8 E26.65335
G1 X147.137 Y64.811 E26.68142
G1 X148.039 Y64.864 E26.71147
G1 X148.932 Y64.996 E26.7415
G1 X149.81 Y65.207 E26.77153
G1 X150.666 Y65.495 E26.80157
G1 X151.493 Y65.857 E26.8316
G1 X152.285 Y66.292 E26.86165
G1 X153.036 Y66.794 E26.89169
G1 X153.739 Y67.361 E26.92173
G1 X154.389 Y67.988 E26.95177
G1 X154.981 Y68.67 E26.98181
G1 X155.511 Y69.401 E27.01184
G1 X155.973 Y70.177 E27.04188
G1 X156.366 Y70.99 E27.07191
G1 X156.684 Y71.835 E27.10194
G1 X156.927 Y72.705 E27.13198
G1 X157.092 Y73.593 E27.16202
G1 X157.187 Y74.723 E27.19974
G1 X157.2 Y75.33 E27.21994
G1 X157.199 Y144.39 E29.51688
G1 X157.19 Y145.117 E29.54106
G1 X157.139 Y146.019 E29.57111
G1 X157.008 Y146.913 E29.60116
G1 X156.799 Y147.791 E29.63118
G1 X156.513 Y148.648 E29.66123
G1 X156.152 Y149.476 E29.69127
G1 X155.72 Y150.268 E29.72128
G1 X155.219 Y151.02 E29.75133
G1 X154.653 Y151.724 E29.78138
G1 X154.028 Y152.375 E29.81139
G1 X153.347 Y152.969 E29.84145
G1 X152.616 Y153.5 E29.8715
G1 X151.842 Y153.964 E29.90151
G1 X151.029 Y154.358 E29.93156
G1 X150.185 Y154.678 E29.96158
G1 X149.315 Y154.923 E29.99165
G1 X148.428 Y155.089 E30.02166
G1 X147.277 Y155.187 E30.06008
G1 X146.67 Y155.2 E30.08027
G1 X73.575 Y155.199 E32.51142
G1 X72.877 Y155.19 E32.53464
G1 X71.976 Y155.139 E32.56466
G1 X71.082 Y155.007 E32.59471
G1 X70.204 Y154.798 E32.62473
G1 X69.347 Y154.511 E32.65479
G1 X68.52 Y154.15 E32.6848
G1 X67.727 Y153.717 E32.71486
G1 X66.976 Y153.216 E32.74488
G1 X66.272 Y152.65 E32.77493
G1 X65.621 Y152.024 E32.80497
G1 X65.028 Y151.343 E32.835
G1 X64.498 Y150.612 E32.86503
G1 X64.034 Y149.837 E32.89507
G1 X63.64 Y149.024 E32.92512
G1 X63.32 Y148.18 E32.95514
G1 X63.076 Y147.31 E32.9852
G1 X62.91 Y146.422 E33.01524
G1 X62.813 Y145.267 E33.05379
G1 X62.8 Y144.658 E33.07405
G1 X62.801 Y75.536 E35.37306
G1 F2700 E30.37306
;MESH:ChassisV2.stl
G0 F6000 X72.335 Y75.536
G0 X73.43 Y75.536
G0 X73.58 Y144.42
G1 F2700 E35.37306
G0 F6000 X73.2 Y144.8
;TYPE:WALL-OUTER
G1 F1200 X146.8 Y144.8 E37.82101
G1 X146.8 Y110 E38.97846
G1 X146.8 Y75.2 E40.13591
G1 X73.2 Y75.2 E42.58386
G1 X73.2 Y144.8 E44.89876
G0 F6000 X73.6 Y144.4
;TYPE:WALL-INNER
G1 F1200 X146.4 Y144.4 E47.3201
G1 X146.4 Y110 E48.46425
G1 X146.4 Y75.6 E49.6084
G1 X73.6 Y75.6 E52.02974
G1 X73.6 Y144.4 E54.31803
G0 F6000 X73.96 Y144.04
;TYPE:SKIN
G1 F1200 X146.04 Y144.04 E56.71542
G1 X146.04 Y110 E57.8476
G1 X146.04 Y75.96 E58.97977
G1 X73.96 Y75.96 E61.37717
G1 X73.96 Y144.04 E63.64152
G0 F6000 X74.159 Y143.739
G1 F1200 X74.26 Y143.839 E63.64624
G0 F6000 X74.826 Y143.839
G1 F1200 X74.159 Y143.173 E63.67759
G0 F6000 X74.159 Y142.607
G1 F1200 X75.391 Y143.839 E63.73554
G0 F6000 X75.957 Y143.839
G1 F1200 X74.159 Y142.042 E63.82009
G0 F6000 X74.159 Y141.476
G1 F1200 X76.523 Y143.839 E63.93126
G0 F6000 X77.088 Y143.839
G1 F1200 X74.159 Y140.91 E64.06903
G0 F6000 X74.159 Y140.345
G1 F1200 X77.654 Y143.839 E64.2334
G0 F6000 X78.22 Y143.839
G1 F1200 X74.159 Y139.779 E64.4244
G0 F6000 X74.159 Y139.213
G1 F1200 X78.785 Y143.839 E64.64199
G0 F6000 X79.351 Y143.839
G1 F1200 X74.159 Y138.648 E64.88618
G0 F6000 X74.159 Y138.082
G1 F1200 X79.917 Y143.839 E65.157
G0 F6000 X80.482 Y143.839
G1 F1200 X74.159 Y137.516 E65.45441
G0 F6000 X74.159 Y136.951
G1 F1200 X81.048 Y143.839 E65.77843
G0 F6000 X81.614 Y143.839
G1 F1200 X74.159 Y136.385 E66.12906
G0 F6000 X74.159 Y135.819
G1 F1200 X82.179 Y143.839 E66.5063
G0 F6000 X82.745 Y143.839
G1 F1200 X74.159 Y135.253 E66.91016
G0 F6000 X74.159 Y134.688
G1 F1200 X83.311 Y143.839 E67.34062
G0 F6000 X83.877 Y143.839
G1 F1200 X74.159 Y134.122 E67.7977
G0 F6000 X74.159 Y133.556
G1 F1200 X84.442 Y143.839 E68.28138
G0 F6000 X85.008 Y143.839
G1 F1200 X74.159 Y132.991 E68.79166
G0 F6000 X74.159 Y132.425
G1 F1200 X85.574 Y143.839 E69.32856
G0 F6000 X86.139 Y143.839
G1 F1200 X74.159 Y131.859 E69.89207
G0 F6000 X74.159 Y131.294
G1 F1200 X86.705 Y143.839 E70.48217
G0 F6000 X87.271 Y143.839
G1 F1200 X74.159 Y130.728 E71.09889
G0 F6000 X74.159 Y130.162
G1 F1200 X87.836 Y143.839 E71.74222
G0 F6000 X88.402 Y143.839
G1 F1200 X74.159 Y129.597 E72.41214
G0 F6000 X74.159 Y129.031
G1 F1200 X88.968 Y143.839 E73.10869
G0 F6000 X89.533 Y143.839
G1 F1200 X74.159 Y128.465 E73.83183
G0 F6000 X74.159 Y127.9
G1 F1200 X90.099 Y143.839 E74.58158
G0 F6000 X90.665 Y143.839
G1 F1200 X74.159 Y127.334 E75.35795
G0 F6000 X74.159 Y126.768
G1 F1200 X91.23 Y143.839 E76.16091
G0 F6000 X91.796 Y143.839
G1 F1200 X74.159 Y126.203 E76.99048
G0 F6000 X74.159 Y125.637
G1 F1200 X92.362 Y143.839 E77.84667
G0 F6000 X92.927 Y143.839
G1 F1200 X74.159 Y125.071 E78.72946
G0 F6000 X74.159 Y124.505
G1 F1200 X93.493 Y143.839 E79.63887
G0 F6000 X94.059 Y143.839
G1 F1200 X74.159 Y123.94 E80.57488
G0 F6000 X74.159 Y123.374
G1 F1200 X94.625 Y143.839 E81.53752
G0 F6000 X95.19 Y143.839
G1 F1200 X74.159 Y122.808 E82.52675
G0 F6000 X74.159 Y122.243
G1 F1200 X95.756 Y143.839 E83.54258
G0 F6000 X96.322 Y143.839
G1 F1200 X74.159 Y121.677 E84.58504
G0 F6000 X74.159 Y121.111
G1 F1200 X96.887 Y143.839 E85.65409
G0 F6000 X97.453 Y143.839
G1 F1200 X74.159 Y120.546 E86.74975
G0 F6000 X74.159 Y119.98
G1 F1200 X98.019 Y143.839 E87.87203
G0 F6000 X98.584 Y143.839
G1 F1200 X74.159 Y119.414 E89.0209
G0 F6000 X74.159 Y118.849
G1 F1200 X99.15 Y143.839 E90.19638
G0 F6000 X99.716 Y143.839
G1 F1200 X74.159 Y118.283 E91.39848
G0 F6000 X74.159 Y117.717
G1 F1200 X100.281 Y143.839 E92.62718
G0 F6000 X100.847 Y143.839
G1 F1200 X74.159 Y117.152 E93.88248
G0 F6000 X74.159 Y116.586
G1 F1200 X101.413 Y143.839 E95.1644
G0 F6000 X101.978 Y143.839
G1 F1200 X74.159 Y116.02 E96.47292
G0 F6000 X74.159 Y115.454
G1 F1200 X102.544 Y143.839 E97.80806
G0 F6000 X103.11 Y143.839
G1 F1200 X74.159 Y114.889 E99.16981
G0 F6000 X74.159 Y114.323
G1 F1200 X103.675 Y143.839 E100.55815
G0 F6000 X104.241 Y143.839
G1 F1200 X74.159 Y113.757 E101.97311
G0 F6000 X74.159 Y113.192
G1 F1200 X104.807 Y143.839 E103.41468
G0 F6000 X105.373 Y143.839
G1 F1200 X74.159 Y112.626 E104.88286
G0 F6000 X74.159 Y112.06
G1 F1200 X105.938 Y143.839 E106.37765
G0 F6000 X106.504 Y143.839
G1 F1200 X74.159 Y111.495 E107.89904
G0 F6000 X74.159 Y110.929
G1 F1200 X107.07 Y143.839 E109.44705
G0 F6000 X107.635 Y143.839
G1 F1200 X74.159 Y110.363 E111.02165
G0 F6000 X74.159 Y109.798
G1 F1200 X108.201 Y143.839 E112.62286
G0 F6000 X108.767 Y143.839
G1 F1200 X74.159 Y109.232 E114.25069
G0 F6000 X74.159 Y108.666
G1 F1200 X109.332 Y143.839 E115.90512
G0 F6000 X109.898 Y143.839
G1 F1200 X74.159 Y108.101 E117.58615
G0 F6000 X74.159 Y107.535
G1 F1200 X110.464 Y143.839 E119.2938
G0 F6000 X111.029 Y143.839
G1 F1200 X74.159 Y106.969 E121.02806
G0 F6000 X74.159 Y106.404
G1 F1200 X111.595 Y143.839 E122.78891
G0 F6000 X112.161 Y143.839
G1 F1200 X74.159 Y105.838 E124.57638
G0 F6000 X74.159 Y105.272
G1 F1200 X112.726 Y143.839 E126.39046
G0 F6000 X113.292 Y143.839
G1 F1200 X74.159 Y104.706 E128.23115
G0 F6000 X74.159 Y104.141
G1 F1200 X113.858 Y143.839 E130.09845
G0 F6000 X114.424 Y143.839
G1 F1200 X74.159 Y103.575 E131.99237
G0 F6000 X74.159 Y103.009
G1 F1200 X114.989 Y143.839 E133.91288
G0 F6000 X115.555 Y143.839
G1 F1200 X74.159 Y102.444 E135.86
G0 F6000 X74.159 Y101.878
G1 F1200 X116.121 Y143.839 E137.83374
G0 F6000 X116.686 Y143.839
G1 F1200 X74.159 Y101.312 E139.83408
G0 F6000 X74.159 Y100.747
G1 F1200 X117.252 Y143.839 E141.86102
G0 F6000 X117.818 Y143.839
G1 F1200 X74.159 Y100.181 E143.91458
G0 F6000 X74.159 Y99.615
G1 F1200 X118.383 Y143.839 E145.99474
G0 F6000 X118.949 Y143.839
G1 F1200 X74.159 Y99.05 E148.1015
G0 F6000 X74.159 Y98.484
G1 F1200 X119.515 Y143.839 E150.23489
G0 F6000 X120.08 Y143.839
G1 F1200 X74.159 Y97.918 E152.39487
G0 F6000 X74.159 Y97.353
G1 F1200 X120.646 Y143.839 E154.58145
G0 F6000 X121.212 Y143.839
G1 F1200 X74.159 Y96.787 E156.79466
G0 F6000 X74.159 Y96.221
G1 F1200 X121.777 Y143.839 E159.03446
G0 F6000 X122.343 Y143.839
G1 F1200 X74.159 Y95.655 E161.30089
G0 F6000 X74.159 Y95.09
G1 F1200 X122.909 Y143.839 E163.59392
G0 F6000 X123.474 Y143.839
G1 F1200 X74.159 Y94.524 E165.91354
G0 F6000 X74.159 Y93.958
G1 F1200 X124.04 Y143.839 E168.25979
G0 F6000 X124.606 Y143.839
G1 F1200 X74.159 Y93.393 E170.63264
G0 F6000 X74.159 Y92.827
G1 F1200 X125.172 Y143.839 E173.03211
G0 F6000 X125.737 Y143.839
G1 F1200 X74.159 Y92.261 E175.45819
G0 F6000 X74.159 Y91.696
G1 F1200 X126.303 Y143.839 E177.91086
G0 F6000 X126.869 Y143.839
G1 F1200 X74.159 Y91.13 E180.39015
G0 F6000 X74.159 Y90.564
G1 F1200 X127.434 Y143.839 E182.89604
G0 F6000 X128 Y143.839
G1 F1200 X74.159 Y89.999 E185.42853
G0 F6000 X74.159 Y89.433
G1 F1200 X128.566 Y143.839 E187.98765
G0 F6000 X129.131 Y143.839
G1 F1200 X74.159 Y88.867 E190.57336
G0 F6000 X74.159 Y88.302
G1 F1200 X129.697 Y143.839 E193.18568
G0 F6000 X130.263 Y143.839
G1 F1200 X74.159 Y87.736 E195.82461
G0 F6000 X74.159 Y87.17
G1 F1200 X130.828 Y143.839 E198.49015
G0 F6000 X131.394 Y143.839
G1 F1200 X74.159 Y86.605 E201.18228
